SVG_Azure_All/Message Routing.svg

<?xml version="1.0" encoding="UTF-8" standalone="no"?>
<!-- Generated by Microsoft Visio, SVG Export Message Routing.svg Page-1 -->

<svg
   xmlns:dc="http://purl.org/dc/elements/1.1/"
   xmlns:cc="http://creativecommons.org/ns#"
   xmlns:rdf="http://www.w3.org/1999/02/22-rdf-syntax-ns#"
   xmlns:svg="http://www.w3.org/2000/svg"
   xmlns="http://www.w3.org/2000/svg"
   xmlns:sodipodi="http://sodipodi.sourceforge.net/DTD/sodipodi-0.dtd"
   xmlns:inkscape="http://www.inkscape.org/namespaces/inkscape"
   width="0.76728171in"
   height="0.78040296in"
   viewBox="0 0 55.244276 56.188865"
   xml:space="preserve"
   class="st2"
   version="1.1"
   id="svg34"
   sodipodi:docname="Message Routing.svg"
   style="font-size:12px;overflow:visible;color-interpolation-filters:sRGB;fill:none;fill-rule:evenodd;stroke-linecap:square;stroke-miterlimit:3"
   inkscape:version="0.92.5 (2060ec1f9f, 2020-04-08)"><metadata
   id="metadata40"><rdf:RDF><cc:Work
       rdf:about=""><dc:format>image/svg+xml</dc:format><dc:type
         rdf:resource="http://purl.org/dc/dcmitype/StillImage" /></cc:Work></rdf:RDF></metadata><defs
   id="defs38" /><sodipodi:namedview
   pagecolor="#ffffff"
   bordercolor="#666666"
   borderopacity="1"
   objecttolerance="10"
   gridtolerance="10"
   guidetolerance="10"
   inkscape:pageopacity="0"
   inkscape:pageshadow="2"
   inkscape:window-width="640"
   inkscape:window-height="480"
   id="namedview36"
   showgrid="false"
   inkscape:zoom="1.8091545"
   inkscape:cx="36.832035"
   inkscape:cy="20.181115"
   inkscape:window-x="0"
   inkscape:window-y="0"
   inkscape:window-maximized="0"
   inkscape:current-layer="svg34" />
	<style
   type="text/css"
   id="style2">
	<![CDATA[
		.st1 {fill:#3999c6;stroke:none;stroke-linecap:butt;stroke-width:7.86434}
		.st2 {fill:none;fill-rule:evenodd;font-size:12px;overflow:visible;stroke-linecap:square;stroke-miterlimit:3}
	]]>
	</style>

	<g
   id="g32"
   transform="translate(-7.8616774,-7.864699)">
		<title
   id="title4">Page-1</title>
		<g
   id="group3102-1"
   transform="translate(7.13926,-34.0157)">
			<title
   id="title6">Message Routing</title>
			<g
   id="group3103-2">
				<title
   id="title8">g12</title>
				<g
   id="shape3104-3"
   transform="translate(15.2597,-14.5492)">
					<title
   id="title10">path4</title>
					<path
   d="M 0,95.39 28.3,66.61 30.7,69.05 2.4,97.84 Z"
   class="st1"
   id="path12"
   inkscape:connector-curvature="0"
   style="fill:#3999c6;stroke:none;stroke-width:7.86433983;stroke-linecap:butt" />
				</g>
				<g
   id="shape3105-5"
   transform="translate(5.76766,-15.3125)">
					<title
   id="title15">path6</title>
					<path
   d="m 43.72,73.39 a 6.67555,6.78984 -180 0 0 0,-9.6 6.67555,6.78984 -180 0 0 -9.45,0 6.67555,6.78984 -180 0 0 0,9.6 6.67555,6.78984 -180 0 0 9.45,0 z M 0,64.45 3.27,63.53 12.33,96.92 9.06,97.84 Z"
   class="st1"
   id="path17"
   inkscape:connector-curvature="0"
   style="fill:#3999c6;stroke:none;stroke-width:7.86433983;stroke-linecap:butt" />
				</g>
				<g
   id="shape3106-7"
   transform="translate(0,-4.89693)">
					<title
   id="title20">path8</title>
					<path
   d="M 13.85,51.81 C 12.9,48.19 9.24,46.04 5.68,47.01 2.11,47.98 0,51.7 0.95,55.33 c 0.96,3.62 4.62,5.77 8.18,4.8 a 6.67442,6.78869 -180 0 0 4.72,-8.32 z m 2.16,36.82 0.9,-3.33 32.83,9.21 -0.9,3.33 z"
   class="st1"
   id="path22"
   inkscape:connector-curvature="0"
   style="fill:#3999c6;stroke:none;stroke-width:7.86433983;stroke-linecap:butt" />
				</g>
				<g
   id="shape3107-9"
   transform="translate(6.64498)">
					<title
   id="title25">path10</title>
					<path
   d="m 40.92,97.84 a 6.67555,6.78984 -180 0 0 8.17,-4.81 c 0.96,-3.62 -1.15,-7.34 -4.72,-8.31 -3.56,-0.98 -7.22,1.17 -8.18,4.8 a 6.67668,6.79099 -180 0 0 4.73,8.32 z M 16.14,88.5 c 3.49,-3.56 3.49,-9.31 0,-12.87 -3.49,-3.55 -9.15,-3.55 -12.65,0 -3.49,3.56 -3.49,9.31 0,12.87 3.5,3.55 9.16,3.55 12.65,0 z"
   class="st1"
   id="path27"
   inkscape:connector-curvature="0"
   style="fill:#3999c6;stroke:none;stroke-width:7.86433983;stroke-linecap:butt" />
				</g>
			</g>
		</g>
	</g>
</svg>

<?xml version="1.0" encoding="UTF-8" standalone="no"?>
<!DOCTYPE svg PUBLIC "-//W3C//DTD SVG 1.1//EN" "http://www.w3.org/Graphics/SVG/1.1/DTD/svg11.dtd">
<!-- Generated by Microsoft Visio, SVG Export Message Routing.svg Page-1 -->
<svg xmlns="http://www.w3.org/2000/svg" xmlns:xlink="http://www.w3.org/1999/xlink" xmlns:ev="http://www.w3.org/2001/xml-events"
		width="0.985714in" height="1.35883in" viewBox="0 0 70.9714 97.8355" xml:space="preserve" color-interpolation-filters="sRGB"
		class="st2">
	<style type="text/css">
	<![CDATA[
		.st1 {fill:#3999c6;stroke:none;stroke-linecap:butt;stroke-width:7.86434}
		.st2 {fill:none;fill-rule:evenodd;font-size:12px;overflow:visible;stroke-linecap:square;stroke-miterlimit:3}
	]]>
	</style>

	<g>
		<title>Page-1</title>
		<g id="group3061-1" transform="translate(7.13926,-34.0157)">
			<title>Message Routing</title>
			<g id="group3062-2">
				<title>g12</title>
				<g id="shape3063-3" transform="translate(15.2597,-14.5492)">
					<title>path4</title>
					<path d="M0 95.39 L28.3 66.61 L30.7 69.05 L2.4 97.84 L0 95.39 Z" class="st1"/>
				</g>
				<g id="shape3064-5" transform="translate(5.76766,-15.3125)">
					<title>path6</title>
					<path d="M43.72 73.39 A6.67555 6.78984 -180 0 0 43.72 63.79 A6.67555 6.78984 -180 0 0 34.27 63.79 A6.67555 6.78984
								 -180 0 0 34.27 73.39 A6.67555 6.78984 -180 0 0 43.72 73.39 ZM0 64.45 L3.27 63.53 L12.33 96.92 L9.06
								 97.84 L0 64.45 Z" class="st1"/>
				</g>
				<g id="shape3065-7" transform="translate(0,-4.89693)">
					<title>path8</title>
					<path d="M13.85 51.81 C12.9 48.19 9.24 46.04 5.68 47.01 C2.11 47.98 0 51.7 0.95 55.33 C1.91 58.95 5.57 61.1 9.13
								 60.13 A6.67442 6.78869 -180 0 0 13.85 51.81 ZM16.01 88.63 L16.91 85.3 L49.74 94.51 L48.84 97.84
								 L16.01 88.63 Z" class="st1"/>
				</g>
				<g id="shape3066-9" transform="translate(6.64498,2.84217E-13)">
					<title>path10</title>
					<path d="M40.92 97.84 A6.67555 6.78984 -180 0 0 49.09 93.03 C50.05 89.41 47.94 85.69 44.37 84.72 C40.81 83.74
								 37.15 85.89 36.19 89.52 A6.67668 6.79099 -180 0 0 40.92 97.84 ZM16.14 88.5 C19.63 84.94 19.63 79.19
								 16.14 75.63 C12.65 72.08 6.99 72.08 3.49 75.63 C0 79.19 0 84.94 3.49 88.5 C6.99 92.05 12.65 92.05
								 16.14 88.5 Z" class="st1"/>
				</g>
			</g>
		</g>
	</g>
</svg>
